X:1
T:Title
L:1/8
Q:1/4=120
M:4/4
K:D
V:1 treble nm="Voice"
V:1
 f2 e2 d2 c2 | B2 A2 B2 c2 | d2 c2 B2 A2 | G2 F2 G2 E2 | (DF)(AG) (FD)(FE) | (DB,)(DA) (GB)(AG) |: %6
 (FD)(Ec) (df)(aA) | (BG)(AF) (Dd) d>c | (df)(ag) (fd)(fe) | (dB)(da) (gb)a-a | %10
 d/c/d/D/ C/A/E/F/ D/d/c/B/ c/f/a/b/ | g/f/e/g/ f/e/d/c/ B/A/G/F/ E/G/F/E/ | %12
 D/E/F/G/ A/E/A/G/ F/B/A/G/ A/G/F/E/ | D/B,/B/c/ d/c/B/A/ G/F/E/B/ A/B/A/A/ | %14
 (a/f/4g/4)(a/f/4g/4) (a/4A/4B/4c/4)(d/4e/4f/4g/4) (f/d/4e/4)(f/F/4G/4) (A/4B/4A/4G/4)(A/4F/4G/4A/4) | %15
 (G/B/4A/4)(G/F/4E/4) (F/4E/4D/4E/4)(F/4G/4A/4B/4) (G/B/4A/4)(B/c/4d/4) (A/4B/4c/4d/4)(e/4f/4g/4a/4) | %16
 (f/d/4e/4)(f/e/4d/4) (e/4c/4d/4e/4)(f/4e/4d/4c/4) (d/B/4c/4)(d/D/4E/4) (F/4G/4F/4E/4)(F/4d/4c/4d/4) | %17
 (B/d/4c/4)(B/A/4G/4) (A/4G/4F/4G/4)(A/4B/4c/4d/4) (B/d/4c/4)(d/c/4B/4) (c/4d/4e/4d/4)(c/4d/4B/4c/4) | %18
 d/c/d/D/ C/A/E/F/ D/d/c/B/ c/f/a/b/ | g/f/e/g/ f/e/d/c/ B/A/G/F/ E/G/F/E/ | %20
 D/E/F/G/ A/E/A/G/ F/B/A/G/ A/G/F/E/ | D/B,/B/c/ d/c/B/A/ G/F/E/B/ A/B/A/A/ | %22
 d/(D/4E/4F/)D/ C/(c/4d/4e/)c/ B/(B,/4C/4D/)B,/ C/(A/4G/4F/)E/ | %23
 D/(G/4F/4E/)G/ F/(D/4E/4F/)A/ G/(B/4A/4G/)F/ E/(A/4G/4F/)E/ | %24
 F/(d/4c/4d/)F/ A/(A/4B/4c/)A/ F/(d/4e/4f/)d/ f/(f/4e/4d/)c/ | %25
 B/(B/4A/4B/)c/ d/(f/4e/4d/)f/ g/(d/4c/4B/)B/ A/E/A/A/ | (DF)(AG) (FD)(FE) | (DB,)(DA) (GB)(AG) :| %28
 (FD)(Ec) (df)(aA) | (BG)(AF) (Dd) d>c | (df)(ag) (fd)(fe) | (dB)(da) (gb)(ag) | f2 e2 d2!ped! c2 | %33
 B2 A2 B2 c2 | d2 c2 B2 A2 | G2 F2 G2 E2 | D2 z2 z4 | %37

